X:109
T:Reel 109
M:4/4
K:Gmaj
L:1/8
Bc|dGBG AFDc|dGBG c2Bc|dGAG AFDE|FGEc A2:|defg|dggf dBGB|de=fd cABc|dggf de=fd|cAFA G2Bc|dggf deed|cABc defe|dggf defd|cAFA G2|
